archive-eye.svg

<svg fill="currentColor" viewBox="0 0 24 24"><path d="M21 7H3V3h18zM9.14 19.75c.18.44.4.86.64 1.25H4V8h16v5.55c-.94-.36-1.95-.55-3-.55-3.5 0-6.57 2.06-7.86 5.25l-.29.75zM9 13h6v-1.5c0-.28-.22-.5-.5-.5h-5c-.28 0-.5.22-.5.5zm8 5c-.56 0-1 .44-1 1s.44 1 1 1 1-.44 1-1-.44-1-1-1m6 1c-.94 2.34-3.27 4-6 4s-5.06-1.66-6-4c.94-2.34 3.27-4 6-4s5.06 1.66 6 4m-3.5 0a2.5 2.5 0 0 0-5 0 2.5 2.5 0 0 0 5 0"/></svg>

<svg  viewBox="0 0 24 24" fill="currentColor"><path  d="M21 7H3V3H21V7M9.14 19.75C9.32 20.19 9.54 20.61 9.78 21H4V8H20V13.55C19.06 13.19 18.05 13 17 13C13.5 13 10.43 15.06 9.14 18.25L8.85 19L9.14 19.75M9 13H15V11.5C15 11.22 14.78 11 14.5 11H9.5C9.22 11 9 11.22 9 11.5V13M17 18C16.44 18 16 18.44 16 19S16.44 20 17 20 18 19.56 18 19 17.56 18 17 18M23 19C22.06 21.34 19.73 23 17 23S11.94 21.34 11 19C11.94 16.66 14.27 15 17 15S22.06 16.66 23 19M19.5 19C19.5 17.62 18.38 16.5 17 16.5S14.5 17.62 14.5 19 15.62 21.5 17 21.5 19.5 20.38 19.5 19Z"/></svg>
